X:1
T:Title
%%score { 1 | 2 }
L:1/8
Q:1/4=90
M:6/8
K:Ab
V:1 treble nm="Grand Piano"
V:2 bass 
V:1
 [CE][CE][CE] [DF][CE][A,C] | [CE]2 [CA] .[CA]3 | B2 B BcB | [CA]3 .[CA]3 | %4
w: Wm.~J.~Kirkpatrick * * * * *||||
 [CE][CE][CE] [DF][CE][A,C] | [CE]2 [CA] .[CA]3 | B2 B BcB | [CA]3 .[CA]3 | %8
w: ||||
 [DF][DF][FA] [Fd][Fd][DF] | [CE]2 [CA] .[Ec]3 | cBE cBE | BAG [CA]3 | [DF][DF][FA] [Fd][Fd][DF] | %13
w: |||||
 [CE]2 [CA] .[Ec]3 | c2 A BAG | [CA]3 .[CA]3 |] %16
w: |||
V:2
 [A,,A,][A,,A,][A,,A,] [A,,A,][A,,A,][A,,E,] | [A,,A,]2 [A,,E,] .[A,,E,]3 | %2
 [E,G,D]2 [E,G,D] [E,G,D][E,A,E][E,G,D] | [A,,A,]3 .[A,,A,]3 | %4
 [A,,A,][A,,A,][A,,A,] [A,,A,][A,,A,][A,,E,] | [A,,A,]2 [A,,E,] .[A,,E,]3 | %6
 [E,G,D]2 [E,G,D] [E,G,D][E,A,E][E,G,D] | [A,,A,]3 .[A,,A,]3 | %8
 [D,A,][D,A,][D,A,] [D,A,][D,A,][D,A,] | [A,,A,]2 [A,,A,] .[A,,A,]3 | %10
 [E,G,D][E,G,D][E,G,D] [E,G,D][E,G,D][E,G,D] | [E,G,D][E,A,C][E,B,D] [A,,A,]3 | %12
 [D,A,][D,A,][D,A,] [D,A,][D,A,][D,A,] | [A,,A,]2 [A,,A,] .[A,,A,]3 | %14
 [E,A,E]2 [E,A,C] [E,G,D][E,A,C][E,B,D] | [A,,A,]3 .[A,,A,]3 |] %16

